public/tech/vercel.svg

<?xml version="1.0" encoding="UTF-8"?>
<svg width="512px" height="103px" viewBox="0 0 512 103" version="1.1" xmlns="http://www.w3.org/2000/svg" xmlns:xlink="http://www.w3.org/1999/xlink" preserveAspectRatio="xMidYMid">
    <title>Vercel</title>
    <g fill="#000000">
        <path d="M117.647422,102.302111 L58.8237112,1.42108547e-14 L0,102.302111 L117.647422,102.302111 Z M176.979532,97.6452319 L226.139143,4.6503511 L204.875505,4.6503511 L170.964323,72.1865516 L137.05289,4.6503511 L115.789251,4.6503511 L164.948862,97.6452319 L176.979532,97.6452319 Z M512,4.6503511 L512,97.6454836 L494.397334,97.6454836 L494.397334,4.6503511 L512,4.6503511 Z M414.012496,62.935462 C414.012496,55.688016 415.525107,49.3136561 418.550329,43.8126341 C421.575551,38.3113605 425.793748,34.0765526 431.202403,31.1077072 C436.611057,28.1388617 442.938353,26.654439 450.181772,26.654439 C456.599673,26.654439 462.375783,28.0515279 467.510104,30.8457058 C472.644425,33.6398837 476.724196,37.7876094 479.749419,43.2886314 C482.774641,48.7899051 484.335072,55.5133484 484.425678,63.4594648 L484.425678,67.5198567 L432.579105,67.5198567 C432.944045,73.2828801 434.640384,77.823482 437.665607,81.1416626 C440.783951,84.3725095 444.956845,85.987807 450.181772,85.987807 C453.481328,85.987807 456.509067,85.1147208 459.257439,83.3682967 C462.008327,81.6218726 464.072123,79.2643637 465.446309,76.2955183 L483.464251,77.6052734 C481.26203,84.1540492 477.136956,89.3933214 471.086511,93.3225869 C465.033549,97.252104 458.066981,99.2167368 450.181772,99.2167368 C442.938353,99.2167368 436.611057,97.732314 431.202403,94.7634686 C425.793748,91.7946231 421.575551,87.5595636 418.550329,82.0585416 C415.525107,76.5572679 414.012496,70.1831598 414.012496,62.935462 Z M466.271827,56.3866863 C465.630037,50.710745 463.843092,46.563271 460.908475,43.943509 C457.973858,41.2366649 454.399969,39.883117 450.181772,39.883117 C445.321785,39.883117 441.380439,41.3239987 438.355216,44.2055103 C435.327477,47.087022 433.449927,51.147414 432.715014,56.3866863 L466.271827,56.3866863 Z M384.30894,43.943509 C387.243557,46.3012696 389.075805,49.5756575 389.810717,53.7669243 L407.962051,52.8500453 C407.320261,47.523691 405.44271,42.8957552 402.324366,38.9662381 C399.206021,35.0369726 395.174069,32.0245861 390.220959,29.9288268 C385.363489,27.7457338 380.000138,26.654439 374.130904,26.654439 C366.887485,26.654439 360.562707,28.1388617 355.151535,31.1077072 C349.742881,34.0765526 345.524684,38.3113605 342.499462,43.8126341 C339.474239,49.3136561 337.961628,55.688016 337.961628,62.935462 C337.961628,70.1831598 339.474239,76.5572679 342.499462,82.0585416 C345.524684,87.5595636 349.742881,91.7946231 355.151535,94.7634686 C360.562707,97.732314 366.887485,99.2167368 374.130904,99.2167368 C380.181349,99.2167368 385.683126,98.1251902 390.633719,95.9423489 C395.586828,93.671922 399.61878,90.484868 402.737125,86.3806833 C405.855469,82.2767502 407.73302,77.4741469 408.37481,71.9731249 L390.085051,71.1871208 C389.443261,75.8150566 387.653799,79.3952386 384.721699,81.9274151 C381.787083,84.3725095 378.255979,85.5949308 374.130904,85.5949308 C368.447916,85.5949308 364.045991,83.6302981 360.927646,79.700781 C357.811818,75.7715155 356.253904,70.1831598 356.253904,62.935462 C356.253904,55.688016 357.811818,50.0996602 360.927646,46.1701431 C364.045991,42.2408776 368.447916,40.2762449 374.130904,40.2762449 C378.074767,40.2762449 381.464929,41.4986663 384.30894,43.943509 Z M295.009512,28.2229236 L311.391519,28.2229236 L311.864681,41.5837349 C313.027454,37.8019553 314.643255,34.8650735 316.714601,32.7730895 C319.717172,29.7398134 323.905167,28.2229236 329.273552,28.2229236 L335.96327,28.2229236 L335.96327,42.5235169 L329.137644,42.5235169 C325.314588,42.5235169 322.176109,43.0434928 319.717172,44.0834444 C317.351357,45.1236477 315.531694,46.7701539 314.258181,49.023718 C313.075274,51.2770304 312.48382,54.1371491 312.48382,57.6038223 L312.48382,97.6452319 L295.009512,97.6452319 L295.009512,28.2229236 Z M219.448167,43.8126341 C216.422693,49.3136561 214.90983,55.688016 214.90983,62.935462 C214.90983,70.1831598 216.422693,76.5572679 219.448167,82.0585416 C222.473892,87.5595636 226.691334,91.7946231 232.100995,94.7634686 C237.510405,97.732314 243.836694,99.2167368 251.079861,99.2167368 C258.96356,99.2167368 265.932645,97.252104 271.98309,93.3225869 C278.036052,89.3933214 282.161126,84.1540492 284.36083,77.6052734 L266.345405,76.2955183 C264.971219,79.2643637 262.907423,81.6218726 260.156535,83.3682967 C257.405646,85.1147208 254.380424,85.987807 251.079861,85.987807 C245.853676,85.987807 241.682041,84.3725095 238.564703,81.1416626 C235.538977,77.823482 233.842889,73.2828801 233.476188,67.5198567 L285.324774,67.5198567 L285.324774,63.4594648 C285.231651,55.5133484 283.673737,48.7899051 280.648515,43.2886314 C277.623292,37.7876094 273.543521,33.6398837 268.4092,30.8457058 C263.274879,28.0515279 257.498769,26.654439 251.079861,26.654439 C243.836694,26.654439 237.510405,28.1388617 232.100995,31.1077072 C226.691334,34.0765526 222.473892,38.3113605 219.448167,43.8126341 Z M261.807571,43.943509 C264.739671,46.563271 266.529133,50.710745 267.170923,56.3866863 L233.613607,56.3866863 C234.347261,51.147414 236.226825,47.087022 239.252299,44.2055103 C242.278024,41.3239987 246.220377,39.883117 251.079861,39.883117 C255.296548,39.883117 258.872954,41.2366649 261.807571,43.943509 Z"></path>
    </g>
</svg>

<svg xmlns="http://www.w3.org/2000/svg" width="512" height="103" preserveAspectRatio="xMidYMid" viewBox="0 0 512 103"><title>Vercel</title><path d="M117.647 102.302 58.824 0 0 102.302zm59.333-4.657L226.14 4.65h-21.264l-33.912 67.537L137.053 4.65h-21.264l49.16 92.995zM512 4.65v92.995h-17.603V4.65zm-97.988 58.285q0-10.87 4.538-19.122 4.54-8.252 12.652-12.705 8.114-4.454 18.98-4.454 9.627 0 17.328 4.192 7.701 4.191 12.24 12.443 4.538 8.25 4.676 20.17v4.06h-51.847q.548 8.645 5.087 13.623 4.677 4.846 12.516 4.846 4.952 0 9.075-2.62 4.127-2.62 6.19-7.072l18.017 1.31q-3.303 9.822-12.377 15.717-9.079 5.895-20.905 5.894-10.865 0-18.98-4.454-8.112-4.452-12.652-12.704-4.538-8.252-4.538-19.124m52.26-6.548q-.962-8.514-5.364-12.443-4.4-4.06-10.726-4.06-7.29 0-11.827 4.322c-3.028 2.881-4.905 6.941-5.64 12.18zm-81.963-12.443q4.401 3.536 5.502 9.823l18.151-.917q-.962-7.989-5.638-13.884-4.675-5.893-12.103-9.037-7.286-3.275-16.09-3.275c-7.244 0-13.568 1.485-18.98 4.454q-8.113 4.453-12.652 12.705-4.537 8.25-4.537 19.122t4.537 19.124q4.54 8.251 12.653 12.704 8.114 4.455 18.979 4.454 9.076 0 16.503-3.275 7.428-3.405 12.103-9.561 4.676-6.156 5.638-14.408l-18.29-.786q-.964 6.942-5.363 10.74-4.403 3.668-10.591 3.668-8.525 0-13.203-5.894-4.674-5.895-4.674-16.766t4.674-16.765q4.678-5.895 13.203-5.894 5.914 0 10.178 3.668m-89.3-15.721h16.383l.473 13.36q1.742-5.672 4.85-8.81 4.504-4.55 12.559-4.55h6.69v14.3h-6.826q-5.734 0-9.42 1.56-3.55 1.56-5.46 4.94-1.774 3.381-1.774 8.58v40.042H295.01zm-75.56 15.59q-4.54 8.25-4.54 19.122t4.54 19.124T232.1 94.763q8.115 4.455 18.979 4.454 11.827 0 20.903-5.894 9.079-5.895 12.378-15.718l-18.016-1.31q-2.062 4.454-6.188 7.073-4.127 2.62-9.077 2.62-7.84 0-12.515-4.846-4.539-4.979-5.089-13.622h51.849v-4.06q-.139-11.92-4.676-20.171-4.538-8.252-12.24-12.443-7.7-4.192-17.33-4.192-10.864 0-18.978 4.454t-12.653 12.705m42.359.13q4.399 3.93 5.363 12.444h-33.557q1.1-7.86 5.638-12.181 4.538-4.323 11.828-4.323 6.325 0 10.728 4.06"/></svg>
